images_elementary_svg/cmd/sc_deletetable.svg

<svg viewBox="0 0 16 16" xmlns="http://www.w3.org/2000/svg" xmlns:xlink="http://www.w3.org/1999/xlink"><linearGradient id="a" gradientTransform="matrix(.94103 0 0 1.027 .46 -4.56)" gradientUnits="userSpaceOnUse" x1="7" x2="7" y1="-4" y2="17"><stop offset="0" stop-color="#cdf87e"/><stop offset=".262" stop-color="#a2e34f"/><stop offset=".661" stop-color="#68b723"/><stop offset="1" stop-color="#1d7e0d"/></linearGradient><linearGradient id="b" gradientTransform="matrix(.59436 0 0 .5999 -19.265 -.033)" gradientUnits="userSpaceOnUse" x1="25.132" x2="25.132" y1="15.5" y2="48.396"><stop offset="0" stop-color="#fafafa"/><stop offset="1" stop-color="#e2e1de"/></linearGradient><linearGradient id="c" gradientTransform="matrix(.98704 0 0 .88413 .093 -3.35)" gradientUnits="userSpaceOnUse" x1="7" x2="7" y1="2" y2="9"><stop offset="0" stop-color="#fff"/><stop offset=".5" stop-color="#fff" stop-opacity=".235"/><stop offset=".951" stop-color="#fff" stop-opacity=".157"/><stop offset="1" stop-color="#fff" stop-opacity=".392"/></linearGradient><linearGradient id="d" gradientTransform="matrix(.36872 0 0 .38857 7.576 7.143)" gradientUnits="userSpaceOnUse" x1="11.192" x2="11.192" y1="4.064" y2="30.298"><stop offset="0" stop-color="#ed5353"/><stop offset="1" stop-color="#c6262e"/></linearGradient><linearGradient id="e" gradientTransform="matrix(.19598879 -.20631255 .19598879 .20631255 2.398062 11.792079)" gradientUnits="userSpaceOnUse" x1="36.011" x2="16.331" xlink:href="#f" y1="13.023" y2="32.702"/><linearGradient id="f"><stop offset="0" stop-color="#fff"/><stop offset=".508" stop-color="#fff" stop-opacity=".235"/><stop offset=".835" stop-color="#fff" stop-opacity=".157"/><stop offset="1" stop-color="#fff" stop-opacity=".392"/></linearGradient><linearGradient id="g" gradientTransform="matrix(.196 -.20632 .196 .20632 2.2 11.896)" gradientUnits="userSpaceOnUse" x1="28.449" x2="16.331" xlink:href="#f" y1="20.584" y2="32.702"/><g transform="translate(0 2)"><rect fill="url(#b)" height="14" rx=".424" ry=".491" width="14" x="1" y="-1"/><path d="m.5-2c-.276 0-.5.224-.5.5v15c0 .276.224.5.5.5h15c.276 0 .5-.224.5-.5v-15c0-.276-.224-.5-.5-.5zm.498.998h14.004v2.002h-4.002v-2h-1v2h-4v-2h-1v2h-4.002zm0 3.002h4.002v3h-4v1h4v3h-4v1h4v3h1v-3h4v3h1v-3h4v-1h-4v-3h4v-1h-4v-3h4.002v11.002h-14.004zm5.002 0h4v3h-4zm0 4h4v3h-4z" fill="#030303" opacity=".32"/><path d="m.5-2a.5.5 0 0 0 -.5.5v3.5h.998v-3.002h14.004v3.002h.998v-3.5a.5.5 0 0 0 -.5-.5zm4.5 1v2h-4v1h14v-1h-4v-2h-1v2h-4v-2z" fill="#126400" opacity=".4"/><path d="m.5-1.48h15.02v3.082h-15.02z" fill="url(#a)"/><path d="m.5-1.48v3.082l1.01-.008-.01-2.156h13.063v2.164h.955v-3.08z" fill="url(#c)"/><path d="m5-1.506h1v3.074h-1zm5 0h1v3.103h-1z" fill="#126400" opacity=".4"/><path d="m15.503 14.06-2.028-2.06 1.952-2.16-1.407-1.337-2.01 2.057-2.05-2.057-1.46 1.387 2.05 2.1-2.05 2.067 1.463 1.44 2.05-2.16 2.05 2.16z" fill="url(#d)" stroke="#b10000" stroke-linejoin="round" transform="translate(0 -2)"/><g fill="none"><path d="m14.024 9.92-1.996 2.06-2.082-2.058" opacity=".5" stroke="url(#e)" stroke-linecap="square" stroke-linejoin="round" transform="translate(0 -2)"/><path d="m14.365 14.47-1.658-1.9m-1.422.082-1.73 1.723" opacity=".4" stroke="url(#g)" transform="translate(0 -2)"/></g></g></svg>

<svg xmlns="http://www.w3.org/2000/svg" xmlns:xlink="http://www.w3.org/1999/xlink" viewBox="0 0 16 16"><defs><linearGradient gradientTransform="matrix(1.38317 0 0 1.41442 -36.243 -3.873)" id="a" gradientUnits="userSpaceOnUse" x1="8.295" x2="8.295" y1="-4.284" y2="16.85"><stop offset="0" stop-color="#cdf87e"/><stop offset=".262" stop-color="#a2e34f"/><stop offset=".661" stop-color="#68b723"/><stop offset="1" stop-color="#1d7e0d"/></linearGradient><linearGradient xlink:href="#a" id="e" x1="7" y1="-4" x2="7" y2="17" gradientUnits="userSpaceOnUse" gradientTransform="matrix(.94103 0 0 1.027 .46 -4.56)"/><linearGradient id="d" gradientTransform="matrix(.59436 0 0 .5999 -19.265 -.033)" gradientUnits="userSpaceOnUse" x1="25.132" x2="25.132" y1="15.5" y2="48.396"><stop offset="0" stop-color="#fafafa"/><stop offset="1" stop-color="#e2e1de"/></linearGradient><linearGradient id="b"><stop offset="0" stop-color="#fff"/><stop offset=".5" stop-color="#fff" stop-opacity=".235"/><stop offset=".951" stop-color="#fff" stop-opacity=".157"/><stop offset="1" stop-color="#fff" stop-opacity=".392"/></linearGradient><linearGradient xlink:href="#b" id="f" x1="7" y1="2" x2="7" y2="9" gradientUnits="userSpaceOnUse" gradientTransform="matrix(.98704 0 0 .88413 .093 -3.35)"/><linearGradient id="g" gradientTransform="matrix(.36872 0 0 .38857 7.576 7.143)" gradientUnits="userSpaceOnUse" x1="11.192" x2="11.192" y1="4.064" y2="30.298"><stop offset="0" stop-color="#ed5353"/><stop offset="1" stop-color="#c6262e"/></linearGradient><linearGradient id="h" gradientTransform="scale(.27717 .29177) rotate(-45 53.112 9.764)" gradientUnits="userSpaceOnUse" x1="36.011" x2="16.331" xlink:href="#c" y1="13.023" y2="32.702"/><linearGradient id="c"><stop offset="0" stop-color="#fff"/><stop offset=".508" stop-color="#fff" stop-opacity=".235"/><stop offset=".835" stop-color="#fff" stop-opacity=".157"/><stop offset="1" stop-color="#fff" stop-opacity=".392"/></linearGradient><linearGradient id="i" gradientTransform="matrix(.196 -.20632 .196 .20632 2.2 11.896)" gradientUnits="userSpaceOnUse" x1="28.449" x2="16.331" xlink:href="#c" y1="20.584" y2="32.702"/></defs><g transform="translate(0 2)"><rect height="14" rx=".424" ry=".491" width="14" x="1" y="-1" fill="url(#d)"/><path d="M.5-2c-.276 0-.5.224-.5.5v15c0 .276.224.5.5.5h15c.276 0 .5-.224.5-.5v-15c0-.276-.224-.5-.5-.5H.5zm.498.998h14.004V1H11v-2h-1v2H6v-2H5v2H.998v-2.002zM.998 2H5v3H1v1h4v3H1v1h4v3h1v-3h4v3h1v-3h4V9h-4V6h4V5h-4V2h4.002v11.002H.998V2zM6 2h4v3H6V2zm0 4h4v3H6V6z" opacity=".32" fill="#030303"/><path d="M.5-2a.5.5 0 0 0-.5.5V2h.998v-3.002h14.004V2H16v-3.5a.5.5 0 0 0-.5-.5zM5-1v2H1v1h14V1h-4v-2h-1v2H6v-2z" opacity=".4" fill="#126400"/><path d="M.5-1.48H15.52v3.082H.5z" fill="url(#e)"/><path d="M.5-1.48v3.082l1.01-.008L1.5-.562h13.063v2.164h.955v-3.08z" fill="url(#f)"/><path opacity=".4" fill="#126400" d="M5-1.506h1v3.074H5zM10-1.506h1v3.103h-1z"/><path d="M15.503 14.06L13.475 12l1.952-2.16-1.407-1.337-2.01 2.057-2.05-2.057L8.5 9.89l2.05 2.1-2.05 2.067 1.463 1.44 2.05-2.16 2.05 2.16z" fill="url(#g)" stroke="#b10000" stroke-linejoin="round" transform="translate(0 -2)"/><path d="M14.024 9.92l-1.996 2.06-2.082-2.058" opacity=".5" fill="none" stroke="url(#h)" stroke-linecap="square" stroke-linejoin="round" transform="translate(0 -2)"/><path d="M14.365 14.47l-1.658-1.9m-1.422.082l-1.73 1.723" opacity=".4" fill="none" stroke="url(#i)" transform="translate(0 -2)"/></g></svg>
